icons/bhi_columns.svg

<svg xmlns="http://www.w3.org/2000/svg" viewBox="0 0 512 512" enable-background="new 0 0 512 512"><path fill="#010101" d="M511.3 448c0 21-4.3 31-31.3 31h-448c-27 0-32-8-32-31v-412.7c0-13.2 22.1-35.3 49.2-35.3h413c27 0 49.2 22.1 49.2 49.2l-.1 398.8zm-287.3 0v-352h-192v342.2c0 5.2 4.6 9.8 9.8 9.8h182.2zm256-352h-192v352h182.2c5.2 0 9.8-4.6 9.8-9.8v-342.2z"/></svg>

<?xml version="1.0" encoding="utf-8"?>
<!-- Generator: Adobe Illustrator 19.2.0, SVG Export Plug-In . SVG Version: 6.00 Build 0)  -->
<svg version="1.1" id="Layer_1" xmlns="http://www.w3.org/2000/svg" xmlns:xlink="http://www.w3.org/1999/xlink" x="0px" y="0px"
	 viewBox="0 0 512 512" enable-background="new 0 0 512 512" xml:space="preserve">
<g>
	<path fill="#010101" d="M511.3,448c0,21-4.3,31-31.3,31H32c-27,0-32-8-32-31V35.3C0,22.1,22.1,0,49.2,0h413
		c27,0,49.2,22.1,49.2,49.2L511.3,448z M224,448V96H32v342.2c0,5.2,4.6,9.8,9.8,9.8H224z M480,96H288v352h182.2
		c5.2,0,9.8-4.6,9.8-9.8V96z"/>
</g>
</svg>
